X: 39906
T: Thomas Duffy's
R: waltz
M: 3/4
K: Gmajor
|:G2 B2 d2|G2 B2 d2|d2 F2 A2|d2 F2 A2|G2 B2 d2|G2 B2 d2|e2 a2 g2|f2 e2 d2:|
b2 a2 g2|d4 e2|f2 e2 d2|c4 B2|A2 a2 g2|f4 e2|d2 e2 f2|g4 dg|
b2 a2 g2|d4 e2|f2 e2 d2|c4 B2|A2 a2 g2|f4 e2|d2 e2 f2|g4 g2||

